X: 1
T: HERE AWA' -- HIGHLAND FLING
B: Ryan's Mammoth Collection of Fiddle Tunes
R: highland fling
M: C|
L: 1/8
Z: Contributed 20080603 by John Chambers jc:jc.tzo.net
K: G
|: vG>GuG>B A>GE2 | c>Bc>"4"e d>Bg2 \
|  B>BB>d c>AB>G | E>"4"A F>D G2G2 H:|
|: kv[g2B2] (d<g) B<g) d2 | g>a b>g e2e>f \
| ((3gab) ((3agf) ((3efg) ((3fed) |1 ((3cde) ((3def) ((3gfe) ((3dcB) \
:|2 ((3cde) ((3def) ((3gfe) ((3dcA) "D.C."[|]|]
